svgs/sharp-regular/blender.svg

<svg xmlns="http://www.w3.org/2000/svg" viewBox="0 0 512 512"><!--! Font Awesome Pro 6.6.0 by @fontawesome - https://fontawesome.com License - https://fontawesome.com/license (Commercial License) Copyright 2024 Fonticons, Inc. --><path d="M0 0L24 0 128 0l32 0 16.2 0L462.5 0 512 0 500 48l-20 80L428 336l4 0 48 0 0 48 0 80 0 48-48 0-288 0-48 0 0-48 0-80 0-48 48 0 12 0-6.7-80L24 256 0 256l0-24L0 24 0 0zM406.5 224L304 224l-16 0 0-32 16 0 110.5 0 16-64L304 128l-16 0 0-32 16 0 134.5 0 12-48L180.2 48l24 288 174.4 0 28-112zM144 384l0 80 288 0 0-80-16 0-256 0-16 0zM48 48l0 160 97.3 0L132 48 48 48zM288 400a24 24 0 1 1 0 48 24 24 0 1 1 0-48z"/></svg>

<svg xmlns="http://www.w3.org/2000/svg" viewBox="0 0 512 512"><!--! Font Awesome Pro 6.4.0 by @fontawesome - https://fontawesome.com License - https://fontawesome.com/license (Commercial License) Copyright 2023 Fonticons, Inc. --><path d="M0 0H24 128h32 16.2H462.5 512L500 48l-20 80L428 336h4 48v48 80 48H432 144 96V464 384 336h48 12l-6.7-80H24 0V232 24 0zM406.5 224H304 288V192h16H414.5l16-64H304 288V96h16H438.5l12-48H180.2l24 288H378.5l28-112zM144 384v80H432V384H416 160 144zM48 48V208h97.3L132 48H48zM288 400a24 24 0 1 1 0 48 24 24 0 1 1 0-48z"/></svg>
